X:96
T:Come Along Cindy
C:Sam Currin solo
N:From the Fletcher Bright Fiddle Band CD "Last Night's Fun" Transcribed by Mike Stangeland
R:bluegrass
L:1/8
Q:1/4=220
M:4/4
K:A
z8 |: "A"A,C =CD E=G A=c | {d}ee ed2=c zA | A,C =CD E=G A=c | {d}ee ea e[ae] z2 | 
A,C =CD E=G A=c | {d}ee ed2=c zA | "E"=cA AA =GE Gc | "A"{=G}AA AA A4 :| "D"[FD][dF] [dF][dF] d2 =cd | 
de de d=c AA | Fd dd dd =cd | "A"A2 [a2e2] [ae][ae] [a2e2] | "D"[FD][dF] [dF][dF] d2 =cd | 
de de d=c AA | "B"B^d fd Bd fd | {^d}"E"eg eg e2 bc' | "A"c'c' ac' a=g ed' | e'e' e'd' c'e DD | 
D=C E=G AE G=c | {=G}AA AA AA AA | ^de =gd eg de | =g{^d}e ee =d=c AA | "E"=cA AA =GE Gc | 
{=G}"A"AA AA [A4A4] | 


